src/icons/svg/example.svg

<?xml version="1.0" standalone="no"?><!DOCTYPE svg PUBLIC "-//W3C//DTD SVG 1.1//EN" "http://www.w3.org/Graphics/SVG/1.1/DTD/svg11.dtd"><svg t="1511504199105" class="icon" style="" viewBox="0 0 1024 1024" version="1.1" xmlns="http://www.w3.org/2000/svg" p-id="1815" xmlns:xlink="http://www.w3.org/1999/xlink" width="64" height="64"><defs><style type="text/css"></style></defs><path d="M770.56 460.8h250.88C998.4 220.16 803.84 25.6 563.2 2.56v250.88c104.96 20.48 186.88 102.4 207.36 207.36z m0 0M460.8 253.44V2.56C220.16 25.6 25.6 220.16 2.56 460.8h250.88c20.48-104.96 102.4-186.88 207.36-207.36z m0 0M563.2 770.56v250.88c243.2-23.04 435.2-217.6 460.8-460.8H773.12C750.08 668.16 668.16 750.08 563.2 770.56z m0 0M253.44 563.2H2.56c23.04 243.2 217.6 435.2 460.8 460.8V773.12C355.84 750.08 273.92 668.16 253.44 563.2z m0 0" fill="" p-id="1816"></path></svg>

<?xml version="1.0" standalone="no"?><!DOCTYPE svg PUBLIC "-//W3C//DTD SVG 1.1//EN" "http://www.w3.org/Graphics/SVG/1.1/DTD/svg11.dtd"><svg t="1503994811583" class="icon" style="" viewBox="0 0 1024 1024" version="1.1" xmlns="http://www.w3.org/2000/svg" p-id="9878" xmlns:xlink="http://www.w3.org/1999/xlink" width="64" height="64"><defs><style type="text/css"></style></defs><path d="M770.56 460.8l250.88 0C998.4 220.16 803.84 25.6 563.2 2.56l0 250.88C668.16 273.92 750.08 355.84 770.56 460.8L770.56 460.8zM770.56 460.8" p-id="9879"></path><path d="M460.8 253.44 460.8 2.56C220.16 25.6 25.6 220.16 2.56 460.8l250.88 0C273.92 355.84 355.84 273.92 460.8 253.44L460.8 253.44zM460.8 253.44" p-id="9880"></path><path d="M563.2 770.56l0 250.88c243.2-23.04 435.2-217.6 460.8-460.8l-250.88 0C750.08 668.16 668.16 750.08 563.2 770.56L563.2 770.56zM563.2 770.56" p-id="9881"></path><path d="M253.44 563.2 2.56 563.2c23.04 243.2 217.6 435.2 460.8 460.8l0-250.88C355.84 750.08 273.92 668.16 253.44 563.2L253.44 563.2zM253.44 563.2" p-id="9882"></path></svg>
